!!!COM: Paul Hindemith
!!!OTL: [T682_Hin-w95p86-87m102-108]
!!!Xfilter: transpose -t P8 -s 39
**kern	**dynam	**kern	**dynam	**kern	**dynam	**kern	**dynam	**kern	**dynam	**kern	**dynam	**kern	**dynam	**kern	**dynam	**kern	**dynam	**kern	**dynam	**kern	**dynam	**kern	**dynam	**kern	**dynam	**kern	**dynam	**kern	**dynam	**kern	**dynam	**kern	**dynam	**kern	**dynam	**kern	**dynam	**kern	**dynam
*grp:A	*	*grp:A	*	*grp:A	*	*grp:B	*	*grp:B	*	*grp:C	*	*grp:C	*	*grp:C	*	*grp:C	*	*grp:C	*	*grp:A	*	*grp:A	*	*grp:A	*	*	*	*grp:D	*	*grp:D	*	*grp:D	*	*grp:D	*	*grp:D	*	*grp:D	*
*part20	*part20	*part19	*part19	*part18	*part18	*part17	*part17	*part16	*part16	*part15	*part15	*part14	*part14	*part13	*part13	*part12	*part12	*part11	*part11	*part10	*part10	*part9	*part9	*part8	*part8	*part7	*part7	*part6	*part6	*part5	*part5	*part4	*part4	*part3	*part3	*part2	*part2	*part1	*part1
*staff20	*	*staff19	*	*staff18	*	*staff17	*	*staff16	*	*staff15	*	*staff14	*	*staff13	*	*staff12	*	*staff11	*	*staff10	*	*staff9	*	*staff8	*	*staff7	*	*staff6	*	*staff5	*	*staff4	*	*staff3	*	*staff2	*	*staff1	*
*I"Contrabass	*	*I"Violoncello	*	*I"Viola	*	*I"Violin 2	*	*I"Violin 1	*	*I"Tambourine	*	*I"Horn in F 4	*	*I"Horn in F 3	*	*I"Horn in F 2	*	*I"Horn in F 1	*	*I"Contrabassoon	*	*I"Bassoon 2	*	*I"Bassoon 1	*	*I"Bass Clarinet in Bb	*	*I"Clarinet in Bb 2	*	*I"Clarinet in Bb 1	*	*I"Oboe 2	*	*I"Oboe 1	*	*I"Flute 1	*	*I"Piccolo	*
*I'Cb.	*	*I'Vc.	*	*I'Vla.	*	*I'2.Vln.	*	*I'1.Vln.	*	*I'Tamb.	*	*I'4.Hn.	*	*I'3.Hn.	*	*I'2.Hn.	*	*I'1.Hn.	*	*I'Cbsn.	*	*I'2.Bsn.	*	*I'1.Bsn.	*	*I'B. Cl.	*	*I'2.Cl.	*	*I'1.Cl.	*	*I'2.Ob.	*	*I'1.Ob.	*	*I'1.Fl.	*	*I'Picc.	*
*ICstr	*	*ICstr	*	*ICstr	*	*ICstr	*	*ICstr	*	*ICidio	*	*ICbras	*	*ICbras	*	*ICbras	*	*ICbras	*	*ICww	*	*ICww	*	*ICww	*	*ICww	*	*ICww	*	*ICww	*	*ICww	*	*ICww	*	*ICww	*	*ICww	*
*Icbass	*	*Icello	*	*Iviola	*	*Ivioln	*	*Ivioln	*	*Itrine	*	*Icor	*	*Icor	*	*Icor	*	*Icor	*	*Ifag_c	*	*Ifagot	*	*Ifagot	*	*Iclarb	*	*Iclars	*	*Iclars	*	*Ioboe	*	*Ioboe	*	*Iflt	*	*Ipicco	*
*	*	*	*	*	*	*	*	*	*	*stria1	*	*	*	*	*	*	*	*	*	*	*	*	*	*	*	*	*	*	*	*	*	*	*	*	*	*	*	*	*
*clefF4	*	*clefF4	*	*clefC3	*	*clefG2	*	*clefG2	*	*clefX	*	*clefG2	*	*clefG2	*	*clefG2	*	*clefG2	*	*clefF4	*	*clefF4	*	*clefF4	*	*clefF4	*	*clefG2	*	*clefG2	*	*clefG2	*	*clefG2	*	*clefG2	*	*clefG2	*
*ITrd7c12	*	*	*	*	*	*	*	*	*	*	*	*ITrd4c7	*	*ITrd4c7	*	*ITrd4c7	*	*ITrd4c7	*	*ITrd7c12	*	*	*	*	*	*ITrd1c2	*	*ITrd1c2	*	*ITrd1c2	*	*	*	*	*	*	*	*ITrd-7c-12	*
*k[]	*	*k[]	*	*k[]	*	*k[]	*	*k[]	*	*k[]	*	*k[b-]	*	*k[b-]	*	*k[b-]	*	*k[b-]	*	*k[]	*	*k[]	*	*k[]	*	*k[b-e-]	*	*k[b-e-]	*	*k[b-e-]	*	*k[]	*	*k[]	*	*k[]	*	*k[]	*
*	*	*	*	*	*	*	*	*	*	*C:	*	*	*	*	*	*	*	*	*	*	*	*	*	*	*	*	*	*	*	*	*	*	*	*	*	*	*	*	*
*M9/8	*	*M9/8	*	*M9/8	*	*M9/8	*	*M9/8	*	*M9/8	*	*M9/8	*	*M9/8	*	*M9/8	*	*M9/8	*	*M9/8	*	*M9/8	*	*M9/8	*	*M9/8	*	*M9/8	*	*M9/8	*	*M9/8	*	*M9/8	*	*M9/8	*	*M9/8	*
=1	=1	=1	=1	=1	=1	=1	=1	=1	=1	=1	=1	=1	=1	=1	=1	=1	=1	=1	=1	=1	=1	=1	=1	=1	=1	=1	=1	=1	=1	=1	=1	=1	=1	=1	=1	=1	=1	=1	=1
!	!	!	!	!	!LO:DY:ed=brack	!	!	!	!	!	!	!	!	!	!	!	!	!	!	!	!	!	!LO:DY:ed=brack	!	!LO:DY:ed=brack	!	!	!	!	!	!	!	!	!	!	!	!	!LO:TX:t=[quarter-dot]=69	!
4.ryy	.	4.ryy	.	8ryy	4ryy	8r	.	8r	.	8ryy	.	8ryy	.	8ryy	.	8ryy	.	8ryy	.	4.ryy	.	8ryy	4ryy	8ryy	4ryy	8%9ryy	.	4.ryy	.	4.ryy	.	4.ryy	.	16ryy	4ryy	16ryy	4ryy	16ryy	4ryy
.	.	.	.	.	.	.	.	.	.	.	.	.	.	.	.	.	.	.	.	.	.	.	.	.	.	.	.	.	.	.	.	.	.	16ryy	.	16ryy	.	16ryy	.
.	.	.	.	8ryy	.	8r	.	8r	.	8ryy	4ryy	8ryy	4ryy	8ryy	4ryy	8ryy	4ryy	8ryy	4ryy	.	.	8ryy	.	8ryy	.	.	.	.	.	.	.	.	.	16ryy	.	16ryy	.	16ryy	.
.	.	.	.	.	.	.	.	.	.	.	.	.	.	.	.	.	.	.	.	.	.	.	.	.	.	.	.	.	.	.	.	.	.	16ryy	.	16ryy	.	16ryy	.
.	.	.	.	8ryy	.	[8e	4ryy	[8e	4ryy	16ryy	.	16ryy	.	16ryy	.	16ryy	.	16ryy	.	.	.	8ryy	.	8ryy	.	.	.	.	.	.	.	.	.	16ryy	.	16ryy	.	16ryy	.
.	.	.	.	.	.	.	.	.	.	16ryy	.	16ryy	.	16ryy	.	16ryy	.	16ryy	.	.	.	.	.	.	.	.	.	.	.	.	.	.	.	16ryy	.	16ryy	.	16ryy	.
4.ryy	4ryy	4.ryy	4ryy	4.ryy	4ryy	4.e_	.	4.e_	.	8ryy	.	8ryy	.	8ryy	.	8ryy	.	8ryy	.	4.ryy	4ryy	4.ryy	4ryy	4.ryy	4ryy	.	.	4.ryy	.	4.ryy	.	4.ryy	.	16ryy	.	16ryy	.	16ryy	.
.	.	.	.	.	.	.	.	.	.	.	.	.	.	.	.	.	.	.	.	.	.	.	.	.	.	.	.	.	.	.	.	.	.	16ryy	.	16ryy	.	16ryy	.
.	.	.	.	.	.	.	.	.	.	8ryy	.	8r'yy	.	8ryy	.	8ryy	.	8ryy	.	.	.	.	.	.	.	.	.	.	.	.	.	.	.	16ryy	.	16ryy	.	16ryy	.
.	.	.	.	.	.	.	.	.	.	.	.	.	.	.	.	.	.	.	.	.	.	.	.	.	.	.	.	.	.	.	.	.	.	16ryy	.	16ryy	.	16ryy	.
.	.	.	.	.	.	.	.	.	.	8ryy	.	8ryy	.	8ryy	.	8ryy	.	8ryy	.	.	.	.	.	.	.	.	.	.	.	.	.	.	.	16ryy	.	16ryy	.	16ryy	.
.	.	.	.	.	.	.	.	.	.	.	.	.	.	.	.	.	.	.	.	.	.	.	.	.	.	.	.	.	.	.	.	.	.	16ryy	.	16ryy	.	16ryy	.
4ryy	.	4ryy	.	4ryy	.	4e]	.	4e]	.	4.ryy	.	8ryy	.	8ryy	.	8ryy	.	8ryy	.	4ryy	.	4ryy	.	4ryy	.	.	.	8ryy	.	8ryy	.	8ryy	.	8ryy	.	8ryy	.	8ryy	.
.	.	.	.	.	.	.	.	.	.	.	.	8ryy	.	8ryy	.	8ryy	.	8ryy	.	.	.	.	.	.	.	.	.	16ryy	4ryy	16ryy	4ryy	16ryy	4ryy	8ryy	.	8ryy	.	8ryy	.
.	.	.	.	.	.	.	.	.	.	.	.	.	.	.	.	.	.	.	.	.	.	.	.	.	.	.	.	16ryy	.	16ryy	.	16ryy	.	.	.	.	.	.	.
8ryy	.	8ryy	.	8ryy	.	(8e	.	(8e	.	.	.	8ryy	.	8ryy	.	8ryy	.	8ryy	.	8ryy	.	8ryy	.	8ryy	.	.	.	16ryy	.	16ryy	.	16ryy	.	8ryy	.	8ryy	.	8ryy	.
.	.	.	.	.	.	.	.	.	.	.	.	.	.	.	.	.	.	.	.	.	.	.	.	.	.	.	.	16ryy	.	16ryy	.	16ryy	.	.	.	.	.	.	.
=2	=2	=2	=2	=2	=2	=2	=2	=2	=2	=2	=2	=2	=2	=2	=2	=2	=2	=2	=2	=2	=2	=2	=2	=2	=2	=2	=2	=2	=2	=2	=2	=2	=2	=2	=2	=2	=2	=2	=2
4.ryy	.	4.ryy	.	4.ryy	.	[4.b)	.	[4.b)	.	4.ryy	.	8ryy	.	8ryy	.	8ryy	.	8ryy	.	4.ryy	.	4.ryy	.	4.ryy	.	8%9ryy	.	16ryy	.	16ryy	.	16ryy	.	4.ryy	.	4.ryy	.	4.ryy	.
.	.	.	.	.	.	.	.	.	.	.	.	.	.	.	.	.	.	.	.	.	.	.	.	.	.	.	.	16ryy	.	16ryy	.	16ryy	.	.	.	.	.	.	.
.	.	.	.	.	.	.	.	.	.	.	.	8ryy	.	8ryy	.	8ryy	.	8ryy	.	.	.	.	.	.	.	.	.	16ryy	.	16ryy	.	16ryy	.	.	.	.	.	.	.
.	.	.	.	.	.	.	.	.	.	.	.	.	.	.	.	.	.	.	.	.	.	.	.	.	.	.	.	16ryy	.	16ryy	.	16ryy	.	.	.	.	.	.	.
.	.	.	.	.	.	.	.	.	.	.	.	8ryy	.	8ryy	.	8ryy	.	8ryy	.	.	.	.	.	.	.	.	.	16ryy	.	16ryy	.	16ryy	.	.	.	.	.	.	.
.	.	.	.	.	.	.	.	.	.	.	.	.	.	.	.	.	.	.	.	.	.	.	.	.	.	.	.	16ryy	.	16ryy	.	16ryy	.	.	.	.	.	.	.
!	!	!	!	!	!	!	!	!LO:TX:t=P:problem:originally crotchet duplets	!	!	!	!	!	!	!	!	!	!	!	!	!	!	!	!	!	!	!	!	!	!	!	!	!	!	!	!	!	!	!
4ryy	.	4ryy	.	4ryy	.	(16%3bL]	.	(16%3bL]	.	4.ryy	.	4.ryy	.	4.ryy	.	4.ryy	.	4.ryy	.	4ryy	.	4ryy	.	4ryy	.	.	.	16ryy	.	16ryy	.	16ryy	.	8ryy	.	8ryy	.	8ryy	.
.	.	.	.	.	.	.	.	.	.	.	.	.	.	.	.	.	.	.	.	.	.	.	.	.	.	.	.	16ryy	.	16ryy	.	16ryy	.	.	.	.	.	.	.
.	.	.	.	.	.	.	.	.	.	.	.	.	.	.	.	.	.	.	.	.	.	.	.	.	.	.	.	8ryy	.	8ryy	.	8ryy	.	8ryy	.	8ryy	.	8ryy	.
.	.	.	.	.	.	16%3aJ)	.	16%3aJ)	.	.	.	.	.	.	.	.	.	.	.	.	.	.	.	.	.	.	.	.	.	.	.	.	.	.	.	.	.	.	.
8ryy	.	8ryy	.	8ryy	.	.	.	.	.	.	.	.	.	.	.	.	.	.	.	8ryy	.	8ryy	.	8ryy	.	.	.	8ryy	.	8ryy	.	8ryy	.	16ryy	.	16ryy	.	16ryy	.
.	.	.	.	.	.	.	.	.	.	.	.	.	.	.	.	.	.	.	.	.	.	.	.	.	.	.	.	.	.	.	.	.	.	16ryy	.	16ryy	.	16ryy	.
4.ryy	.	4.ryy	.	4.ryy	.	[4.b	.	[4.b	.	8ryy	.	8ryy	.	8ryy	.	8ryy	.	8ryy	.	4.ryy	.	4.ryy	.	4.ryy	.	.	.	4.ryy	.	4.ryy	.	4.ryy	.	16ryy	.	16ryy	.	16ryy	.
.	.	.	.	.	.	.	.	.	.	.	.	.	.	.	.	.	.	.	.	.	.	.	.	.	.	.	.	.	.	.	.	.	.	16ryy	.	16ryy	.	16ryy	.
.	.	.	.	.	.	.	.	.	.	8ryy	4ryy	8ryy	.	8ryy	.	8ryy	.	8ryy	.	.	.	.	.	.	.	.	.	.	.	.	.	.	.	16ryy	.	16ryy	.	16ryy	.
.	.	.	.	.	.	.	.	.	.	.	.	.	.	.	.	.	.	.	.	.	.	.	.	.	.	.	.	.	.	.	.	.	.	16ryy	.	16ryy	.	16ryy	.
.	.	.	.	.	.	.	.	.	.	16ryy	.	16ryy	.	16ryy	.	16ryy	.	16ryy	.	.	.	.	.	.	.	.	.	.	.	.	.	.	.	16ryy	.	16ryy	.	16ryy	.
.	.	.	.	.	.	.	.	.	.	16ryy	.	16ryy	.	16ryy	.	16ryy	.	16ryy	.	.	.	.	.	.	.	.	.	.	.	.	.	.	.	16ryy	.	16ryy	.	16ryy	.
=3	=3	=3	=3	=3	=3	=3	=3	=3	=3	=3	=3	=3	=3	=3	=3	=3	=3	=3	=3	=3	=3	=3	=3	=3	=3	=3	=3	=3	=3	=3	=3	=3	=3	=3	=3	=3	=3	=3	=3
4ryy	.	4ryy	.	4ryy	.	4b]	.	4b]	.	8ryy	.	8ryy	.	8ryy	.	8ryy	.	8ryy	.	4ryy	.	4ryy	.	4ryy	.	8%9ryy	.	4.ryy	.	4.ryy	.	4.ryy	.	16ryy	.	16ryy	.	16ryy	.
.	.	.	.	.	.	.	.	.	.	.	.	.	.	.	.	.	.	.	.	.	.	.	.	.	.	.	.	.	.	.	.	.	.	16ryy	.	16ryy	.	16ryy	.
.	.	.	.	.	.	.	.	.	.	8ryy	.	8ryy	.	8ryy	.	8ryy	.	8ryy	.	.	.	.	.	.	.	.	.	.	.	.	.	.	.	16ryy	.	16ryy	.	16ryy	.
.	.	.	.	.	.	.	.	.	.	.	.	.	.	.	.	.	.	.	.	.	.	.	.	.	.	.	.	.	.	.	.	.	.	16ryy	.	16ryy	.	16ryy	.
8ryy	.	8ryy	.	8ryy	.	[8cc#X	.	[8cc#X	.	8ryy	.	8ryy	.	8ryy	.	8ryy	.	8ryy	.	8ryy	.	8ryy	.	8ryy	.	.	.	.	.	.	.	.	.	8ryy	.	8ryy	.	8ryy	.
4.ryy	.	4.ryy	.	4.ryy	.	(4cc#]	.	(4cc#]	.	4.ryy	.	8ryy	.	8ryy	.	8ryy	.	8ryy	.	4.ryy	.	4.ryy	.	4.ryy	.	.	.	16ryy	.	16ryy	.	16ryy	.	4.ryy	.	4.ryy	.	4.ryy	.
.	.	.	.	.	.	.	.	.	.	.	.	.	.	.	.	.	.	.	.	.	.	.	.	.	.	.	.	16ryy	.	16ryy	.	16ryy	.	.	.	.	.	.	.
.	.	.	.	.	.	.	.	.	.	.	.	8ryy	.	8ryy	.	8ryy	.	8ryy	.	.	.	.	.	.	.	.	.	16ryy	.	16ryy	.	16ryy	.	.	.	.	.	.	.
.	.	.	.	.	.	.	.	.	.	.	.	.	.	.	.	.	.	.	.	.	.	.	.	.	.	.	.	16ryy	.	16ryy	.	16ryy	.	.	.	.	.	.	.
.	.	.	.	.	.	8dd)	.	8dd)	.	.	.	8ryy	.	8ryy	.	8ryy	.	8ryy	.	.	.	.	.	.	.	.	.	16ryy	.	16ryy	.	16ryy	.	.	.	.	.	.	.
.	.	.	.	.	.	.	.	.	.	.	.	.	.	.	.	.	.	.	.	.	.	.	.	.	.	.	.	16ryy	.	16ryy	.	16ryy	.	.	.	.	.	.	.
4ryy	.	4ryy	.	4ryy	.	[4.dd~	.	[4.dd~	.	4.ryy	.	8ryy	.	8ryy	.	8ryy	.	8ryy	.	4ryy	.	4ryy	.	4ryy	.	.	.	16ryy	.	16ryy	.	16ryy	.	4.ryy	.	4.ryy	.	4.ryy	.
.	.	.	.	.	.	.	.	.	.	.	.	.	.	.	.	.	.	.	.	.	.	.	.	.	.	.	.	16ryy	.	16ryy	.	16ryy	.	.	.	.	.	.	.
.	.	.	.	.	.	.	.	.	.	.	.	8ryy	.	8ryy	.	8ryy	.	8ryy	.	.	.	.	.	.	.	.	.	16ryy	.	16ryy	.	16ryy	.	.	.	.	.	.	.
.	.	.	.	.	.	.	.	.	.	.	.	.	.	.	.	.	.	.	.	.	.	.	.	.	.	.	.	16ryy	.	16ryy	.	16ryy	.	.	.	.	.	.	.
8ryy	.	8ryy	.	8ryy	.	.	.	.	.	.	.	8ryy	.	8ryy	.	8ryy	.	8ryy	.	8ryy	.	8ryy	.	8ryy	.	.	.	16ryy	.	16ryy	.	16ryy	.	.	.	.	.	.	.
.	.	.	.	.	.	.	.	.	.	.	.	.	.	.	.	.	.	.	.	.	.	.	.	.	.	.	.	16ryy	.	16ryy	.	16ryy	.	.	.	.	.	.	.
=4	=4	=4	=4	=4	=4	=4	=4	=4	=4	=4	=4	=4	=4	=4	=4	=4	=4	=4	=4	=4	=4	=4	=4	=4	=4	=4	=4	=4	=4	=4	=4	=4	=4	=4	=4	=4	=4	=4	=4
*M6/8	*	*M6/8	*	*M6/8	*	*M6/8	*	*M6/8	*	*M6/8	*	*M6/8	*	*M6/8	*	*M6/8	*	*M6/8	*	*M6/8	*	*M6/8	*	*M6/8	*	*M6/8	*	*M6/8	*	*M6/8	*	*M6/8	*	*M6/8	*	*M6/8	*	*M6/8	*
4.ryy	4ryy	4.ryy	4ryy	4.ryy	4ryy	(4dd]	4ryy	(4dd]	4ryy	4%3ryy	.	4ryy	.	8ryy	.	4ryy	.	4ryy	.	4.ryy	4ryy	4.ryy	4ryy	4.ryy	4ryy	4%3ryy	.	8ryy	.	8ryy	.	8ryy	.	8ryy	.	8ryy	.	8ryy	.
.	.	.	.	.	.	.	.	.	.	.	.	.	.	8ryy	4ryy	.	.	.	.	.	.	.	.	.	.	.	.	8ryy	.	8ryy	.	8ryy	.	16ryy	4ryy	16ryy	4ryy	16ryy	4ryy
.	.	.	.	.	.	.	.	.	.	.	.	.	.	.	.	.	.	.	.	.	.	.	.	.	.	.	.	.	.	.	.	.	.	16ryy	.	16ryy	.	16ryy	.
.	.	.	.	.	.	8g)	.	8g)	.	.	.	8ryy	.	16ryy	.	8ryy	.	8ryy	.	.	.	.	.	.	.	.	.	8ryy	.	8ryy	.	8ryy	.	16ryy	.	16ryy	.	16ryy	.
.	.	.	.	.	.	.	.	.	.	.	.	.	.	16ryy	.	.	.	.	.	.	.	.	.	.	.	.	.	.	.	.	.	.	.	16ryy	.	16ryy	.	16ryy	.
4ryy	4ryy	4ryy	4ryy	4ryy	4ryy	[4.g	4ryy	[4.g	4ryy	.	.	4.ryy	.	8ryy	.	4.ryy	.	8ryy	.	4ryy	4ryy	4ryy	4ryy	4ryy	4ryy	.	.	4.ryy	.	4.ryy	.	4.ryy	.	16ryy	4ryy	16ryy	4ryy	16ryy	4ryy
.	.	.	.	.	.	.	.	.	.	.	.	.	.	.	.	.	.	.	.	.	.	.	.	.	.	.	.	.	.	.	.	.	.	16ryy	.	16ryy	.	16ryy	.
.	.	.	.	.	.	.	.	.	.	.	.	.	.	8ryy	.	.	.	8ryy	4ryy	.	.	.	.	.	.	.	.	.	.	.	.	.	.	16ryy	.	16ryy	.	16ryy	.
.	.	.	.	.	.	.	.	.	.	.	.	.	.	.	.	.	.	.	.	.	.	.	.	.	.	.	.	.	.	.	.	.	.	16ryy	.	16ryy	.	16ryy	.
8ryy	.	8ryy	.	8ryy	.	.	.	.	.	.	.	.	.	8ryy	.	.	.	16ryy	.	8ryy	.	8ryy	.	8ryy	.	.	.	.	.	.	.	.	.	16ryy	.	16ryy	.	16ryy	.
.	.	.	.	.	.	.	.	.	.	.	.	.	.	.	.	.	.	16ryy	.	.	.	.	.	.	.	.	.	.	.	.	.	.	.	16ryy	.	16ryy	.	16ryy	.
=5	=5	=5	=5	=5	=5	=5	=5	=5	=5	=5	=5	=5	=5	=5	=5	=5	=5	=5	=5	=5	=5	=5	=5	=5	=5	=5	=5	=5	=5	=5	=5	=5	=5	=5	=5	=5	=5	=5	=5
*M9/8	*	*M9/8	*	*M9/8	*	*M9/8	*	*M9/8	*	*M9/8	*	*M9/8	*	*M9/8	*	*M9/8	*	*M9/8	*	*M9/8	*	*M9/8	*	*M9/8	*	*M9/8	*	*M9/8	*	*M9/8	*	*M9/8	*	*M9/8	*	*M9/8	*	*M9/8	*
4.ryy	.	4.ryy	.	4.ryy	.	8gL]	.	8gL]	.	8%9ryy	.	4.ryy	.	4.ryy	.	8ryy	.	8ryy	.	4.ryy	.	4.ryy	.	4.ryy	.	8%9ryy	.	8ryy	.	8ryy	.	8ryy	.	16ryy	.	16ryy	.	16ryy	.
.	.	.	.	.	.	.	.	.	.	.	.	.	.	.	.	.	.	.	.	.	.	.	.	.	.	.	.	.	.	.	.	.	.	16ryy	.	16ryy	.	16ryy	.
.	.	.	.	.	.	(8b-X~	.	(8b-X~	.	.	.	.	.	.	.	8ryy	.	8ryy	.	.	.	.	.	.	.	.	.	8ryy	.	8ryy	.	8ryy	.	8ryy	.	8ryy	.	8ryy	.
.	.	.	.	.	.	8e-XJ)	.	8e-XJ)	.	.	.	.	.	.	.	16ryy	.	8ryy	.	.	.	.	.	.	.	.	.	16ryy	.	16ryy	.	16ryy	.	8ryy	.	8ryy	.	8ryy	.
.	.	.	.	.	.	.	.	.	.	.	.	.	.	.	.	16ryy	.	.	.	.	.	.	.	.	.	.	.	16ryy	.	16ryy	.	16ryy	.	.	.	.	.	.	.
4ryy	.	4ryy	.	4ryy	.	4.f	.	4.f	.	.	.	8ryy	.	8ryy	.	8ryy	.	4.ryy	.	4ryy	.	4ryy	.	4ryy	.	.	.	16ryy	.	16ryy	.	16ryy	.	4.ryy	.	4.ryy	.	4.ryy	.
.	.	.	.	.	.	.	.	.	.	.	.	.	.	.	.	.	.	.	.	.	.	.	.	.	.	.	.	16ryy	.	16ryy	.	16ryy	.	.	.	.	.	.	.
.	.	.	.	.	.	.	.	.	.	.	.	8ryy	4ryy	8ryy	4ryy	8ryy	.	.	.	.	.	.	.	.	.	.	.	16ryy	.	16ryy	.	16ryy	.	.	.	.	.	.	.
.	.	.	.	.	.	.	.	.	.	.	.	.	.	.	.	.	.	.	.	.	.	.	.	.	.	.	.	16ryy	.	16ryy	.	16ryy	.	.	.	.	.	.	.
8ryy	.	8r~yy	.	8r~yy	.	.	.	.	.	.	.	16ryy	.	16ryy	.	8ryy	.	.	.	8ryy	.	8ryy	.	8ryy	.	.	.	16ryy	.	16ryy	.	16ryy	.	.	.	.	.	.	.
.	.	.	.	.	.	.	.	.	.	.	.	16ryy	.	16ryy	.	.	.	.	.	.	.	.	.	.	.	.	.	16ryy	.	16ryy	.	16ryy	.	.	.	.	.	.	.
4.ryy	.	4.ryy	.	4.ryy	.	4.c	.	4.c	.	.	.	8ryy	.	8ryy	.	4.ryy	.	8ryy	.	4.ryy	.	4.ryy	.	4.ryy	.	.	.	16ryy	.	16ryy	.	16ryy	.	4.ryy	.	4.ryy	.	4.ryy	.
.	.	.	.	.	.	.	.	.	.	.	.	.	.	.	.	.	.	.	.	.	.	.	.	.	.	.	.	16ryy	.	16ryy	.	16ryy	.	.	.	.	.	.	.
.	.	.	.	.	.	.	.	.	.	.	.	16ryy	.	8ryy	.	.	.	16ryy	.	.	.	.	.	.	.	.	.	16ryy	.	16ryy	.	16ryy	.	.	.	.	.	.	.
.	.	.	.	.	.	.	.	.	.	.	.	16ryy	.	.	.	.	.	16ryy	.	.	.	.	.	.	.	.	.	16ryy	.	16ryy	.	16ryy	.	.	.	.	.	.	.
.	.	.	.	.	.	.	.	.	.	.	.	8ryy	.	8ryy	.	.	.	8ryy	.	.	.	.	.	.	.	.	.	8ryy	.	8ryy	.	8ryy	.	.	.	.	.	.	.
=6	=6	=6	=6	=6	=6	=6	=6	=6	=6	=6	=6	=6	=6	=6	=6	=6	=6	=6	=6	=6	=6	=6	=6	=6	=6	=6	=6	=6	=6	=6	=6	=6	=6	=6	=6	=6	=6	=6	=6
4ryy	.	4ryy	.	4ryy	.	(8b-X~L	.	(8b-X~L	.	4.ryy	.	4.ryy	.	4.ryy	.	16ryy	.	16ryy	.	4ryy	.	4ryy	.	4ryy	.	8%9ryy	.	4.ryy	.	4.ryy	.	4.ryy	.	16ryy	4ryy	16ryy	4ryy	16ryy	4ryy
.	.	.	.	.	.	.	.	.	.	.	.	.	.	.	.	16ryy	.	16ryy	.	.	.	.	.	.	.	.	.	.	.	.	.	.	.	16ryy	.	16ryy	.	16ryy	.
.	.	.	.	.	.	8e-X)	.	8e-X)	.	.	.	.	.	.	.	8ryy	.	8ryy	.	.	.	.	.	.	.	.	.	.	.	.	.	.	.	16ryy	.	16ryy	.	16ryy	.
.	.	.	.	.	.	.	.	.	.	.	.	.	.	.	.	.	.	.	.	.	.	.	.	.	.	.	.	.	.	.	.	.	.	16ryy	.	16ryy	.	16ryy	.
8ryy	.	8ryy	.	8ryy	.	[8fJ	.	[8fJ	.	.	.	.	.	.	.	16ryy	.	8ryy	.	8ryy	.	8ryy	.	8ryy	.	.	.	.	.	.	.	.	.	16ryy	.	16ryy	.	16ryy	.
.	.	.	.	.	.	.	.	.	.	.	.	.	.	.	.	16ryy	.	.	.	.	.	.	.	.	.	.	.	.	.	.	.	.	.	16ryy	.	16ryy	.	16ryy	.
4.ryy	.	4.ryy	.	4.ryy	.	4f]	.	4f]	.	8ryy	.	8ryy	.	8ryy	.	4ryy	.	8ryy	.	4.ryy	4ryy	4.ryy	4ryy	4.ryy	4ryy	.	.	4.ryy	.	4.ryy	.	4.ryy	.	16ryy	.	16ryy	.	16ryy	.
.	.	.	.	.	.	.	.	.	.	.	.	.	.	.	.	.	.	.	.	.	.	.	.	.	.	.	.	.	.	.	.	.	.	16ryy	.	16ryy	.	16ryy	.
.	.	.	.	.	.	.	.	.	.	8ryy	4ryy	8ryy	.	8ryy	.	.	.	8ryy	.	.	.	.	.	.	.	.	.	.	.	.	.	.	.	16ryy	.	16ryy	.	16ryy	.
.	.	.	.	.	.	.	.	.	.	.	.	.	.	.	.	.	.	.	.	.	.	.	.	.	.	.	.	.	.	.	.	.	.	16ryy	.	16ryy	.	16ryy	.
.	.	.	.	.	.	[8c	.	[8c	.	16ryy	4ryy	16ryy	.	16ryy	.	8ryy	.	16ryy	.	.	.	.	.	.	.	.	.	.	.	.	.	.	.	16ryy	.	16ryy	.	16ryy	.
.	.	.	.	.	.	.	.	.	.	16ryy	.	16ryy	.	16ryy	.	.	.	16ryy	.	.	.	.	.	.	.	.	.	.	.	.	.	.	.	16ryy	.	16ryy	.	16ryy	.
4ryy	4ryy	4ryy	4ryy	4ryy	4ryy	4c]	4ryy	4c]	4ryy	8ryy	.	8ryy	4ryy	8ryy	4ryy	8ryy	4ryy	8ryy	4ryy	4ryy	.	4ryy	.	4ryy	.	.	.	8ryy	.	8ryy	.	8ryy	.	8ryy	.	8ryy	.	8ryy	.
.	.	.	.	.	.	.	.	.	.	8ryy	.	8ryy	.	8ryy	.	8ryy	.	8ryy	.	.	.	.	.	.	.	.	.	16ryy	4ryy	16ryy	4ryy	16ryy	4ryy	8ryy	.	8ryy	.	8ryy	.
.	.	.	.	.	.	.	.	.	.	.	.	.	.	.	.	.	.	.	.	.	.	.	.	.	.	.	.	16ryy	.	16ryy	.	16ryy	.	.	.	.	.	.	.
8ryy	.	8ryy	.	8ryy	.	(8b-~	.	(8b-~	.	8ryy	.	8ryy	.	8ryy	.	8ryy	.	8ryy	.	8ryy	.	8ryy	.	8ryy	.	.	.	16ryy	.	16ryy	.	16ryy	.	8ryy	.	8ryy	.	8ryy	.
.	.	.	.	.	.	.	.	.	.	.	.	.	.	.	.	.	.	.	.	.	.	.	.	.	.	.	.	16ryy	.	16ryy	.	16ryy	.	.	.	.	.	.	.
=7	=7	=7	=7	=7	=7	=7	=7	=7	=7	=7	=7	=7	=7	=7	=7	=7	=7	=7	=7	=7	=7	=7	=7	=7	=7	=7	=7	=7	=7	=7	=7	=7	=7	=7	=7	=7	=7	=7	=7
*M6/8	*	*M6/8	*	*M6/8	*	*M6/8	*	*M6/8	*	*M6/8	*	*M6/8	*	*M6/8	*	*M6/8	*	*M6/8	*	*M6/8	*	*M6/8	*	*M6/8	*	*M6/8	*	*M6/8	*	*M6/8	*	*M6/8	*	*M6/8	*	*M6/8	*	*M6/8	*
4.ryy	.	4.ryy	.	4.ryy	.	8e-X)	.	8e-X)	.	4.ryy	.	8ryy	.	8ryy	.	8ryy	.	8ryy	.	4.ryy	.	4.ryy	.	4.ryy	.	4.ryy	.	16ryy	.	16ryy	.	16ryy	.	4.ryy	.	4.ryy	.	4.ryy	.
.	.	.	.	.	.	.	.	.	.	.	.	.	.	.	.	.	.	.	.	.	.	.	.	.	.	.	.	16ryy	.	16ryy	.	16ryy	.	.	.	.	.	.	.
.	.	.	.	.	.	4f	.	4f	.	.	.	8ryy	.	8ryy	.	8ryy	.	8ryy	.	.	.	.	.	.	.	.	.	16ryy	.	16ryy	.	16ryy	.	.	.	.	.	.	.
.	.	.	.	.	.	.	.	.	.	.	.	.	.	.	.	.	.	.	.	.	.	.	.	.	.	.	.	16ryy	.	16ryy	.	16ryy	.	.	.	.	.	.	.
.	.	.	.	.	.	.	.	.	.	.	.	8ryy	.	8ryy	.	8ryy	.	8ryy	.	.	.	.	.	.	.	.	.	16ryy	.	16ryy	.	16ryy	.	.	.	.	.	.	.
.	.	.	.	.	.	.	.	.	.	.	.	.	.	.	.	.	.	.	.	.	.	.	.	.	.	.	.	16ryy	.	16ryy	.	16ryy	.	.	.	.	.	.	.
!	!	!	!	!	!	!	!	!	!	!	!	!	!	!	!	!	!	!	!	!	!	!	!	!	!	!	!LO:DY:t=%s cresc.	!	!	!	!	!	!	!	!	!	!	!	!
4ryy	.	4ryy	.	4ryy	.	[4.c	.	[4.c	.	4.ryy	.	8ryy	.	8ryy	.	8ryy	.	8ryy	.	4ryy	.	4ryy	.	4ryy	.	4.ryy	4ryy	16ryy	.	16ryy	.	16ryy	.	8ryy	.	8ryy	.	8ryy	.
.	.	.	.	.	.	.	.	.	.	.	.	.	.	.	.	.	.	.	.	.	.	.	.	.	.	.	.	16ryy	.	16ryy	.	16ryy	.	.	.	.	.	.	.
.	.	.	.	.	.	.	.	.	.	.	.	8ryy	.	8ryy	.	8ryy	.	8ryy	.	.	.	.	.	.	.	.	.	8ryy	.	8ryy	.	8ryy	.	8ryy	.	8ryy	.	8ryy	.
8ryy	.	8ryy	.	8ryy	.	.	.	.	.	.	.	8ryy	.	8ryy	.	8ryy	.	8ryy	.	8ryy	.	8ryy	.	8ryy	.	.	.	8ryy	.	8ryy	.	8ryy	.	16ryy	.	16ryy	.	16ryy	.
.	.	.	.	.	.	.	.	.	.	.	.	.	.	.	.	.	.	.	.	.	.	.	.	.	.	.	.	.	.	.	.	.	.	16ryy	.	16ryy	.	16ryy	.
=	=	=	=	=	=	=	=	=	=	=	=	=	=	=	=	=	=	=	=	=	=	=	=	=	=	=	=	=	=	=	=	=	=	=	=	=	=	=	=
*-	*-	*-	*-	*-	*-	*-	*-	*-	*-	*-	*-	*-	*-	*-	*-	*-	*-	*-	*-	*-	*-	*-	*-	*-	*-	*-	*-	*-	*-	*-	*-	*-	*-	*-	*-	*-	*-	*-	*-
!!!system-decoration: [(s1,s2[(s3,s4)][(s5,s6)]s7[(s8,s9)]s10)][([(s11,s12,s13,s14)])]s15[([(s16,s17)]s18,s19,s20)]
!!!Xfilter: slurcheck
!!!RDF**kern: j = marked note, color="magenta", text="extra)"
